Newaita-dark/mimetypes/32/application-pdf.svg

<?xml version="1.0" encoding="UTF-8"?>
<svg xmlns="http://www.w3.org/2000/svg" xmlns:xlink="http://www.w3.org/1999/xlink" width="32px" height="32px" viewBox="0 0 32 32" version="1.1">
<defs>
<linearGradient id="linear0" gradientUnits="userSpaceOnUse" x1="254" y1="233.5" x2="254" y2="254.666672" gradientTransform="matrix(0.062506,0,0,0.062506,-0.00000381506,13.438785)">
<stop offset="0" style="stop-color:rgb(0%,0%,0%);stop-opacity:0.27451;"/>
<stop offset="1" style="stop-color:rgb(0%,0%,0%);stop-opacity:0;"/>
</linearGradient>
<radialGradient id="radial0" gradientUnits="userSpaceOnUse" cx="450.908936" cy="189.579361" fx="450.908936" fy="189.579361" r="21.166656" gradientTransform="matrix(0.00000017417,-0.0781325,-0.140638,-0.000000101539,50.146086,63.595333)">
<stop offset="0" style="stop-color:rgb(0%,0%,0%);stop-opacity:0.313726;"/>
<stop offset="0.222222" style="stop-color:rgb(0%,0%,0%);stop-opacity:0.27451;"/>
<stop offset="1" style="stop-color:rgb(0%,0%,0%);stop-opacity:0;"/>
</radialGradient>
<radialGradient id="radial1" gradientUnits="userSpaceOnUse" cx="450.908936" cy="189.579361" fx="450.908936" fy="189.579361" r="21.166656" gradientTransform="matrix(-0.00000017417,0.0781325,0.140638,0.000000101539,-18.393049,-7.52748)">
<stop offset="0" style="stop-color:rgb(0%,0%,0%);stop-opacity:0.313726;"/>
<stop offset="0.222222" style="stop-color:rgb(0%,0%,0%);stop-opacity:0.27451;"/>
<stop offset="1" style="stop-color:rgb(0%,0%,0%);stop-opacity:0;"/>
</radialGradient>
<radialGradient id="radial2" gradientUnits="userSpaceOnUse" cx="450.908936" cy="189.579361" fx="450.908936" fy="189.579361" r="21.166656" gradientTransform="matrix(-0.00000017417,-0.0781325,0.140638,-0.000000101539,-18.393049,63.595333)">
<stop offset="0" style="stop-color:rgb(0%,0%,0%);stop-opacity:0.313726;"/>
<stop offset="0.222222" style="stop-color:rgb(0%,0%,0%);stop-opacity:0.27451;"/>
<stop offset="1" style="stop-color:rgb(0%,0%,0%);stop-opacity:0;"/>
</radialGradient>
<radialGradient id="radial3" gradientUnits="userSpaceOnUse" cx="450.908936" cy="189.579361" fx="450.908936" fy="189.579361" r="21.166656" gradientTransform="matrix(0.00000017417,0.0781325,-0.140638,0.000000101539,50.146084,-7.527479)">
<stop offset="0" style="stop-color:rgb(0%,0%,0%);stop-opacity:0.313726;"/>
<stop offset="0.222222" style="stop-color:rgb(0%,0%,0%);stop-opacity:0.27451;"/>
<stop offset="1" style="stop-color:rgb(0%,0%,0%);stop-opacity:0;"/>
</radialGradient>
<linearGradient id="linear1" gradientUnits="userSpaceOnUse" x1="306.916656" y1="-25.791676" x2="305.954559" y2="-141.414581" gradientTransform="matrix(0.0753497,0,0,0.217412,-5.854013,33.641348)">
<stop offset="0" style="stop-color:rgb(93.725491%,60.392159%,60.392159%);stop-opacity:1;"/>
<stop offset="1" style="stop-color:rgb(100%,80.392158%,82.352942%);stop-opacity:1;"/>
</linearGradient>
<linearGradient id="linear2" gradientUnits="userSpaceOnUse" x1="165.484848" y1="-25.791672" x2="165.484848" y2="-141.414581" gradientTransform="matrix(4.556143,0,0,13.146184,-353.972656,2034.180176)">
<stop offset="0" style="stop-color:rgb(93.725491%,32.549021%,31.37255%);stop-opacity:1;"/>
<stop offset="1" style="stop-color:rgb(89.803922%,45.09804%,45.09804%);stop-opacity:1;"/>
</linearGradient>
<linearGradient id="linear3" gradientUnits="userSpaceOnUse" x1="840" y1="1695.117188" x2="840" y2="175.117218" gradientTransform="matrix(1,0,0,1,-79.999962,0.000907087)">
<stop offset="0" style="stop-color:rgb(93.725491%,32.549021%,31.37255%);stop-opacity:1;"/>
<stop offset="1" style="stop-color:rgb(89.803922%,45.09804%,45.09804%);stop-opacity:1;"/>
</linearGradient>
</defs>
<g id="surface1">
<path style=" stroke:none;fill-rule:nonzero;fill:url(#linear0);" d="M 7.9375 28.035156 L 23.816406 28.035156 L 23.816406 29.355469 L 7.9375 29.355469 Z M 7.9375 28.035156 "/>
<path style=" stroke:none;fill-rule:nonzero;fill:url(#radial0);" d="M 23.816406 28.035156 L 26.460938 28.035156 L 26.460938 26.710938 L 23.816406 26.710938 Z M 23.816406 28.035156 "/>
<path style=" stroke:none;fill-rule:nonzero;fill:url(#radial1);" d="M 7.9375 28.035156 L 5.292969 28.035156 L 5.292969 29.355469 L 7.9375 29.355469 Z M 7.9375 28.035156 "/>
<path style=" stroke:none;fill-rule:nonzero;fill:url(#radial2);" d="M 7.9375 28.035156 L 5.292969 28.035156 L 5.292969 26.710938 L 7.9375 26.710938 Z M 7.9375 28.035156 "/>
<path style=" stroke:none;fill-rule:nonzero;fill:url(#radial3);" d="M 23.816406 28.035156 L 26.460938 28.035156 L 26.460938 29.355469 L 23.816406 29.355469 Z M 23.816406 28.035156 "/>
<path style=" stroke:none;fill-rule:nonzero;fill:url(#linear1);" d="M 6.613281 2.894531 L 25.136719 2.894531 C 25.867188 2.894531 26.460938 3.488281 26.460938 4.21875 L 26.460938 26.710938 C 26.460938 27.441406 25.867188 28.035156 25.136719 28.035156 L 6.613281 28.035156 C 5.882812 28.035156 5.292969 27.441406 5.292969 26.710938 L 5.292969 4.21875 C 5.292969 3.488281 5.882812 2.894531 6.613281 2.894531 Z M 6.613281 2.894531 "/>
<path style="fill-rule:nonzero;fill:url(#linear2);stroke-width:11.338583;stroke-linecap:round;stroke-linejoin:miter;stroke:rgb(12.941177%,12.941177%,12.941177%);stroke-opacity:1;stroke-miterlimit:4;" d="M 399.883094 175.022665 C 355.714081 175.022665 320.048194 210.688553 320.048194 255.093763 L 320.048194 1615.121439 C 320.048194 1659.52665 355.714081 1695.192537 399.883094 1695.192537 L 520.10784 1695.192537 L 520.10784 175.022665 Z M 399.883094 175.022665 " transform="matrix(0.016538,0,0,0.016538,0,0)"/>
<path style=" stroke:none;fill-rule:nonzero;fill:rgb(0%,0%,0%);fill-opacity:0.196078;" d="M 6.613281 27.960938 C 5.882812 27.960938 5.292969 27.367188 5.292969 26.636719 L 5.292969 26.472656 C 5.292969 27.203125 5.882812 27.792969 6.613281 27.792969 L 25.136719 27.792969 C 25.871094 27.792969 26.460938 27.203125 26.460938 26.472656 L 26.460938 26.636719 C 26.460938 27.367188 25.871094 27.960938 25.136719 27.960938 Z M 6.613281 27.960938 "/>
<path style="fill-rule:nonzero;fill:url(#linear3);stroke-width:11.338583;stroke-linecap:round;stroke-linejoin:round;stroke:rgb(12.941177%,12.941177%,12.941177%);stroke-opacity:1;stroke-miterlimit:4;" d="M 680.013838 175.022665 L 680.013838 1135.167247 C 740.008112 975.025051 779.925562 975.025051 839.919836 1135.167247 L 839.919836 175.022665 Z M 680.013838 175.022665 " transform="matrix(0.016538,0,0,0.016538,0,0)"/>
<path style=" stroke:none;fill-rule:nonzero;fill:rgb(100%,100%,100%);fill-opacity:0.392157;" d="M 6.613281 2.972656 C 5.882812 2.972656 5.292969 3.5625 5.292969 4.292969 L 5.292969 4.460938 C 5.292969 3.726562 5.882812 3.136719 6.613281 3.136719 L 25.136719 3.136719 C 25.871094 3.136719 26.460938 3.726562 26.460938 4.460938 L 26.460938 4.292969 C 26.460938 3.5625 25.871094 2.972656 25.136719 2.972656 Z M 6.613281 2.972656 "/>
<path style=" stroke:none;fill-rule:nonzero;fill:rgb(12.941177%,12.941177%,12.941177%);fill-opacity:1;" d="M 6.617188 2.800781 C 5.832031 2.800781 5.199219 3.4375 5.199219 4.21875 L 5.199219 26.710938 C 5.199219 27.496094 5.832031 28.128906 6.617188 28.128906 L 25.136719 28.128906 C 25.921875 28.128906 26.554688 27.496094 26.554688 26.710938 L 26.554688 4.21875 C 26.554688 3.4375 25.921875 2.800781 25.136719 2.800781 Z M 6.617188 2.988281 L 25.136719 2.988281 C 25.820312 2.988281 26.367188 3.535156 26.367188 4.21875 L 26.367188 26.710938 C 26.367188 27.394531 25.820312 27.941406 25.136719 27.941406 L 6.617188 27.941406 C 5.933594 27.941406 5.386719 27.394531 5.386719 26.710938 L 5.386719 4.21875 C 5.386719 3.535156 5.933594 2.988281 6.617188 2.988281 Z M 6.617188 2.988281 "/>
</g>
</svg>

<svg height="32pt" viewBox="0 0 32 32" width="32pt" xmlns="http://www.w3.org/2000/svg" xmlns:xlink="http://www.w3.org/1999/xlink"><linearGradient id="a" gradientUnits="userSpaceOnUse" x1="15.875" x2="15.875" y1="28.03275" y2="29.3556875"><stop offset="0" stop-opacity=".275"/><stop offset="1" stop-opacity="0"/></linearGradient><linearGradient id="b"><stop offset="0" stop-opacity=".314"/><stop offset=".222" stop-opacity=".275"/><stop offset="1" stop-opacity="0"/></linearGradient><radialGradient id="c" cx="450.909" cy="189.579" gradientTransform="matrix(0 -.07813 -.14064 0 50.146 63.595)" gradientUnits="userSpaceOnUse" r="21.167" xlink:href="#b"/><radialGradient id="d" cx="450.909" cy="189.579" gradientTransform="matrix(0 .07813 .14064 0 -18.393 -7.527)" gradientUnits="userSpaceOnUse" r="21.167" xlink:href="#b"/><radialGradient id="e" cx="450.909" cy="189.579" gradientTransform="matrix(0 -.07813 .14064 0 -18.393 63.595)" gradientUnits="userSpaceOnUse" r="21.167" xlink:href="#b"/><radialGradient id="f" cx="450.909" cy="189.579" gradientTransform="matrix(0 .07813 -.14064 0 50.146 -7.527)" gradientUnits="userSpaceOnUse" r="21.167" xlink:href="#b"/><linearGradient id="g" gradientTransform="matrix(.07535 0 0 .21741 -5.854 33.641)" gradientUnits="userSpaceOnUse" x1="306.917" x2="305.955" y1="-25.792" y2="-141.415"><stop offset="0" stop-color="#ef9a9a"/><stop offset="1" stop-color="#ffcdd2"/></linearGradient><linearGradient id="h"><stop offset="0" stop-color="#ef5350"/><stop offset="1" stop-color="#e57373"/></linearGradient><linearGradient id="i" gradientTransform="matrix(4.55614 0 0 13.14618 -353.973 2034.18)" gradientUnits="userSpaceOnUse" x1="165.485" x2="165.485" xlink:href="#h" y1="-25.792" y2="-141.415"/><linearGradient id="j" gradientUnits="userSpaceOnUse" x1="760" x2="760" xlink:href="#h" y1="1695.117" y2="175.117"/><path d="m7.938 28.035h15.878v1.32h-15.878zm0 0" fill="url(#a)"/><path d="m23.816 28.035h2.645v-1.324h-2.645zm0 0" fill="url(#c)"/><path d="m7.938 28.035h-2.645v1.32h2.644zm0 0" fill="url(#d)"/><path d="m7.938 28.035h-2.645v-1.324h2.644zm0 0" fill="url(#e)"/><path d="m23.816 28.035h2.645v1.32h-2.645zm0 0" fill="url(#f)"/><path d="m6.613 2.895h18.524c.73 0 1.324.593 1.324 1.324v22.491c0 .73-.594 1.324-1.324 1.324h-18.524c-.73 0-1.32-.594-1.32-1.324v-22.491c0-.73.59-1.324 1.32-1.324zm0 0" fill="url(#g)"/><path d="m399.883 175.023c-44.169 0-79.835 35.666-79.835 80.07v1360.028c0 44.406 35.666 80.072 79.835 80.072h120.225v-1520.17zm0 0" fill="url(#i)" stroke="#212121" stroke-linecap="round" stroke-width="11.339" transform="matrix(.016538 .0002572 -.0002572 .016538 0 0)"/><path d="m6.613 27.96c-.73 0-1.32-.593-1.32-1.323v-.164c0 .73.59 1.32 1.32 1.32h18.524a1.32 1.32 0 0 0 1.324-1.32v.164c0 .73-.59 1.324-1.324 1.324zm0 0" fill-opacity=".196"/><path d="m680.014 175.023v960.144c59.994-160.142 99.912-160.142 159.906 0v-960.144zm0 0" fill="url(#j)" stroke="#212121" stroke-linecap="round" stroke-linejoin="round" stroke-width="11.339" transform="matrix(.016538 .0002572 -.0002572 .016538 0 0)"/><path d="m6.613 2.973c-.73 0-1.32.59-1.32 1.32v.168c0-.734.59-1.324 1.32-1.324h18.524c.734 0 1.324.59 1.324 1.324v-.168c0-.73-.59-1.32-1.324-1.32zm0 0" fill="#fff" fill-opacity=".392"/><path d="m6.617 2.8c-.785 0-1.417.639-1.417 1.42v22.49c0 .785.633 1.418 1.418 1.418h18.52c.785 0 1.418-.633 1.418-1.418v-22.491c0-.782-.633-1.418-1.418-1.418zm0 .188h18.52c.683 0 1.23.547 1.23 1.23v22.493c0 .684-.547 1.23-1.23 1.23h-18.52c-.683 0-1.23-.546-1.23-1.23v-22.492c0-.684.547-1.23 1.23-1.23zm0 0" fill="#212121"/></svg>
